static/site/images/special-projects/autoclave/svg/circle-icon-3.svg

<svg width="65" height="65" viewBox="0 0 65 65" fill="none" xmlns="http://www.w3.org/2000/svg">
<g clip-path="url(#clip0)">
<path d="M32.9141 63.4619C49.8971 63.4619 63.6645 49.6944 63.6645 32.7114C63.6645 15.7284 49.8971 1.96094 32.9141 1.96094C15.931 1.96094 2.16359 15.7284 2.16359 32.7114C2.16359 49.6944 15.931 63.4619 32.9141 63.4619Z" stroke="#0073FF" stroke-width="2" stroke-miterlimit="10"/>
<path d="M26.0518 24.6002C24.9471 23.952 23.5745 22.9735 20.9164 22.9735C16.8039 22.9735 13.4701 26.3083 13.4701 30.4202C13.4701 34.5327 16.8039 37.8669 20.9164 37.8669H21.0276H44.0601H43.7655C48.5115 37.8669 52.3581 34.0196 52.3581 29.2739C52.3581 24.5282 48.5115 20.6816 43.7655 20.6816C42.3813 20.6816 41.0734 21.0086 39.9155 21.5906" stroke="#0073FF" stroke-width="2" stroke-miterlimit="10"/>
<path d="M24.3301 20.0488C25.6727 16.2394 29.3045 13.5098 33.5732 13.5098C37.486 13.5098 40.8621 15.8027 42.4332 19.1174C42.6643 19.607 42.8566 20.1177 43.0066 20.6472" stroke="#0073FF" stroke-width="2" stroke-miterlimit="10"/>
<path d="M22.7363 41.1211L20.2576 45.4133" stroke="#0073FF" stroke-width="2" stroke-miterlimit="10"/>
<path d="M32.9119 41.1211L30.4332 45.4133" stroke="#0073FF" stroke-width="2" stroke-miterlimit="10"/>
<path d="M25.2145 47.6211L22.7365 51.9137" stroke="#0073FF" stroke-width="2" stroke-miterlimit="10"/>
<path d="M35.8977 47.6211L33.419 51.9137" stroke="#0073FF" stroke-width="2" stroke-miterlimit="10"/>
<path d="M43.0869 41.1211L40.6089 45.4133" stroke="#0073FF" stroke-width="2" stroke-miterlimit="10"/>
</g>
<defs>
<clipPath id="clip0">
<rect width="64" height="64" fill="white" transform="translate(0.914062 0.710938)"/>
</clipPath>
</defs>
</svg>

<svg width="65" height="65" fill="none" xmlns="http://www.w3.org/2000/svg"><g clip-path="url(#clip0)" stroke="#0073FF" stroke-width="2" stroke-miterlimit="10"><path d="M32.914 63.462c16.983 0 30.75-13.768 30.75-30.75 0-16.984-13.767-30.751-30.75-30.751S2.164 15.728 2.164 32.71s13.767 30.75 30.75 30.75z"/><path d="M26.052 24.6c-1.105-.648-2.477-1.627-5.136-1.627a7.447 7.447 0 000 14.894H44.06h-.294a8.593 8.593 0 100-17.185 8.548 8.548 0 00-3.85.909M24.33 20.049a9.802 9.802 0 019.243-6.54 9.8 9.8 0 019.434 7.138M22.736 41.121l-2.478 4.292m12.654-4.292l-2.479 4.292m-5.218 2.208l-2.479 4.293m13.162-4.293l-2.479 4.293m9.668-10.793l-2.478 4.292"/></g><defs><clipPath id="clip0"><path fill="#fff" transform="translate(.914 .71)" d="M0 0h64v64H0z"/></clipPath></defs></svg>
